src/epub/images/titlepage.svg

<?xml version="1.0" encoding="utf-8"?>
<svg xmlns="http://www.w3.org/2000/svg" xmlns:svg="http://www.w3.org/2000/svg" version="1.1" viewBox="0 0 1400 440">
	<title>The titlepage for the Standard Ebooks edition of Parnassus on Wheels, by Christopher Morley</title>
	<g>
		<path d="m 385.6323,52.807016 0,77.192984 17.59065,0 0,-28.63158 10.5731,0 c 15.06433,0 26.38596,-8.888888 26.38596,-24.795322 0,-16 -11.32163,-23.766082 -26.38596,-23.766082 l -28.16375,0 z m 17.59065,34.526317 0,-20.491229 4.95906,0 c 6.92398,0 13.47369,2.339181 13.47369,10.292398 0,7.859649 -6.54971,10.198831 -13.47369,10.198831 l -4.95906,0 z"/>
		<path d="m 486.12354,52.807016 -16.28071,0 L 438.68494,130 l 18.90058,0 5.70761,-15.4386 29.38011,0 5.70761,15.4386 18.90058,0 -31.15789,-77.192984 z m 0.5614,46.31579 -17.40351,0 8.60819,-22.45614 0.18713,0 8.60819,22.45614 z"/>
		<path d="m 525.20103,52.807016 0,77.192984 17.59064,0 0,-30.502925 L 566.37062,130 588.7332,130 562.1601,98.093567 c 9.45029,-2.994152 15.81286,-10.760234 15.81286,-22.362574 0,-15.157895 -10.8538,-22.923977 -25.16959,-22.923977 l -27.60234,0 z m 17.59064,34.245615 0,-20.210527 2.05848,0 c 6.64328,0 14.59649,0.467836 14.59649,10.105263 0,9.637428 -7.95321,10.105264 -14.59649,10.105264 l -2.05848,0 z"/>
		<path d="m 614.86038,82.093566 0.18714,0 L 645.73758,130 l 17.59064,0 0,-77.192984 -17.59064,0 0,47.906434 -0.18714,0 -30.69006,-47.906434 -17.59064,0 0,77.192984 17.59064,0 0,-47.906434 z"/>
		<path d="m 718.77705,52.807016 -16.2807,0 L 671.33845,130 l 18.90059,0 5.7076,-15.4386 29.38011,0 5.70761,15.4386 18.90058,0 -31.15789,-77.192984 z m 0.5614,46.31579 -17.40351,0 8.60819,-22.45614 0.18713,0 8.60819,22.45614 z"/>
		<path d="m 784.47149,51.403507 c -12.44444,0 -25.16959,9.169591 -25.16959,23.578948 0,8.046784 5.4269,15.251462 14.69006,19.836258 9.16959,4.584795 17.40351,7.111107 17.40351,12.725147 0,7.20468 -7.29824,7.57895 -11.1345,7.57895 -8.60819,0 -18.90059,-8.70176 -18.90059,-8.70176 l -8.79532,14.78363 c 0,0 10.94737,10.19883 29.00585,10.19883 15.06433,0 29.09942,-6.45614 29.09942,-24.88889 0,-10.105264 -9.4503,-17.40351 -18.05848,-21.052632 -8.79533,-3.742691 -16.09357,-6.83041 -16.09357,-11.134504 0,-4.210526 3.18128,-6.923976 9.16959,-6.923976 7.95322,0 15.62573,5.333333 15.62573,5.333333 l 7.11111,-14.035088 c 0,0 -9.91813,-7.298246 -23.95322,-7.298246 z"/>
		<path d="m 850.50952,51.403507 c -12.44445,0 -25.16959,9.169591 -25.16959,23.578948 0,8.046784 5.4269,15.251462 14.69006,19.836258 9.16959,4.584795 17.40351,7.111107 17.40351,12.725147 0,7.20468 -7.29825,7.57895 -11.13451,7.57895 -8.60818,0 -18.90058,-8.70176 -18.90058,-8.70176 l -8.79532,14.78363 c 0,0 10.94736,10.19883 29.00584,10.19883 15.06433,0 29.09942,-6.45614 29.09942,-24.88889 0,-10.105264 -9.45029,-17.40351 -18.05848,-21.052632 -8.79532,-3.742691 -16.09357,-6.83041 -16.09357,-11.134504 0,-4.210526 3.18129,-6.923976 9.16959,-6.923976 7.95322,0 15.62574,5.333333 15.62574,5.333333 l 7.11111,-14.035088 c 0,0 -9.91813,-7.298246 -23.95322,-7.298246 z"/>
		<path d="m 949.25222,52.807016 -17.59064,0 0,44.63158 c 0,12.912284 -3.92983,16.654974 -12.53801,16.654974 -8.60819,0 -12.53802,-3.74269 -12.53802,-16.654974 l 0,-44.63158 -17.59064,0 0,49.777774 c 0,19.08772 10.47953,28.81872 30.12866,28.81872 19.64912,0 30.12865,-9.731 30.12865,-28.81872 l 0,-49.777774 z"/>
		<path d="m 991.17471,51.403507 c -12.44444,0 -25.16959,9.169591 -25.16959,23.578948 0,8.046784 5.4269,15.251462 14.69006,19.836258 9.16959,4.584795 17.40351,7.111107 17.40351,12.725147 0,7.20468 -7.29825,7.57895 -11.13451,7.57895 -8.60818,0 -18.90058,-8.70176 -18.90058,-8.70176 l -8.79532,14.78363 c 0,0 10.94737,10.19883 29.00585,10.19883 15.06437,0 29.09937,-6.45614 29.09937,-24.88889 0,-10.105264 -9.4503,-17.40351 -18.05844,-21.052632 -8.79532,-3.742691 -16.09357,-6.83041 -16.09357,-11.134504 0,-4.210526 3.18129,-6.923976 9.1696,-6.923976 7.95321,0 15.62571,5.333333 15.62571,5.333333 l 7.1111,-14.035088 c 0,0 -9.9181,-7.298246 -23.95319,-7.298246 z"/>
	</g>
	<g>
		<path d="m 393.50073,191.35672 c 0,22.54971 16.09356,40.04679 38.92397,40.04679 22.17544,0 38.83041,-17.49708 38.83041,-40.04679 0,-22.5497 -17.40351,-39.95321 -38.83041,-39.95321 -21.23976,0 -38.92397,17.40351 -38.92397,39.95321 z m 18.99415,0 c 0,-11.50877 6.36257,-23.01754 19.92982,-23.01754 13.66082,0 19.83626,11.50877 19.83626,23.01754 0,11.50878 -5.80117,23.01755 -19.83626,23.01755 -14.40935,0 -19.92982,-11.50877 -19.92982,-23.01755 z"/>
		<path d="m 501.60745,182.09357 0.18713,0 30.69006,47.90643 17.59065,0 0,-77.19298 -17.59065,0 0,47.90643 -0.18713,0 -30.69006,-47.90643 -17.59064,0 0,77.19298 17.59064,0 0,-47.90643 z"/>
		<path d="m 648.09137,230 19.46199,0 21.98831,-77.19298 -19.46199,0 -13.19298,52.95906 -0.46784,0 -14.03509,-52.95906 -13.28655,0 -14.03509,52.95906 -0.46783,0 -13.19298,-52.95906 -19.55556,0 L 603.83406,230 623.38962,230 635.7405,186.67836 648.09137,230 Z"/>
		<path d="m 716.35161,199.02924 24.88889,0 0,30.97076 17.59064,0 0,-77.19298 -17.59064,0 0,30.78362 -24.88889,0 0,-30.78362 -17.59065,0 0,77.19298 17.59065,0 0,-30.97076 z"/>
		<path d="m 819.19665,152.80702 -44.16375,0 0,77.19298 44.16375,0 0,-15.4386 -26.5731,0 0,-15.53216 25.45029,0 0,-15.4386 -25.45029,0 0,-15.34503 26.5731,0 0,-15.43859 z"/>
		<path d="m 878.47295,152.80702 -44.16374,0 0,77.19298 44.16374,0 0,-15.4386 -26.5731,0 0,-15.53216 25.4503,0 0,-15.4386 -25.4503,0 0,-15.34503 26.5731,0 0,-15.43859 z"/>
		<path d="m 911.17616,152.80702 -17.59064,0 0,77.19298 44.16374,0 0,-15.4386 -26.5731,0 0,-61.75438 z"/>
		<path d="m 979.84429,151.40351 c -12.44444,0 -25.16959,9.16959 -25.16959,23.57895 0,8.04678 5.4269,15.25146 14.69006,19.83625 9.16959,4.5848 17.40351,7.11111 17.40351,12.72515 0,7.20468 -7.29825,7.57895 -11.1345,7.57895 -8.60819,0 -18.90059,-8.70176 -18.90059,-8.70176 l -8.79532,14.78363 c 0,0 10.94737,10.19883 29.00585,10.19883 15.06433,0 29.09939,-6.45614 29.09939,-24.88889 0,-10.10526 -9.45027,-17.40351 -18.05846,-21.05263 -8.79532,-3.74269 -16.09356,-6.83041 -16.09356,-11.13451 0,-4.21052 3.18128,-6.92397 9.16959,-6.92397 7.95321,0 15.62573,5.33333 15.62573,5.33333 l 7.1111,-14.03509 c 0,0 -9.91812,-7.29824 -23.95321,-7.29824 z"/>
	</g>
	<g>
		<path d="m 271.32785,378.07018 c -13.26315,0 -19.08771,-9.26316 -19.08771,-17.05264 0,-7.71929 5.82456,-16.98245 19.08771,-16.98245 6.73685,0 11.36843,3.57895 11.36843,3.57895 l 5.61403,-11.22807 c 0,0 -6.45614,-5.33334 -19.01754,-5.33334 -16.42106,0 -31.36842,13.47369 -31.36842,30.10527 0,16.5614 15.01754,29.89473 31.36842,29.89473 12.5614,0 19.01754,-5.33333 19.01754,-5.33333 l -5.61403,-11.22807 c 0,0 -4.63158,3.57895 -11.36843,3.57895 z"/>
		<path d="m 311.61952,366.77193 18.66667,0 0,23.22807 13.19298,0 0,-57.89474 -13.19298,0 0,23.08772 -18.66667,0 0,-23.08772 -13.19298,0 0,57.89474 13.19298,0 0,-23.22807 z"/>
		<path d="m 356.88049,332.10526 0,57.89474 13.19298,0 0,-22.87719 17.68421,22.87719 16.77193,0 -19.92983,-23.92982 c 7.08772,-2.24562 11.85965,-8.07018 11.85965,-16.77193 0,-11.36842 -8.14035,-17.19299 -18.87719,-17.19299 l -20.70175,0 z m 13.19298,25.68421 0,-15.15789 1.54386,0 c 4.98246,0 10.94737,0.35088 10.94737,7.57895 0,7.22807 -5.96491,7.57894 -10.94737,7.57894 l -1.54386,0 z"/>
		<path d="m 425.375,332.10526 -13.19298,0 0,57.89474 13.19298,0 0,-57.89474 z"/>
		<path d="m 458.80043,331.05263 c -9.33333,0 -18.87719,6.8772 -18.87719,17.68421 0,6.03509 4.07017,11.4386 11.01754,14.8772 6.87719,3.43859 13.05263,5.33333 13.05263,9.54385 0,5.40351 -5.47368,5.68422 -8.35088,5.68422 -6.45614,0 -14.17543,-6.52632 -14.17543,-6.52632 l -6.5965,11.08772 c 0,0 8.21053,7.64912 21.75439,7.64912 11.29825,0 21.82456,-4.8421 21.82456,-18.66666 0,-7.57895 -7.08772,-13.05264 -13.54386,-15.78948 -6.59649,-2.80702 -12.07017,-5.12281 -12.07017,-8.35088 0,-3.15789 2.38596,-5.19298 6.87719,-5.19298 5.96491,0 11.7193,4 11.7193,4 l 5.33333,-10.52631 c 0,0 -7.4386,-5.47369 -17.96491,-5.47369 z"/>
		<path d="m 482.54057,343.68421 13.75438,0 0,46.31579 13.19299,0 0,-46.31579 13.75438,0 0,-11.57895 -40.70175,0 0,11.57895 z"/>
		<path d="m 528.20395,361.01754 c 0,16.91228 12.07017,30.03509 29.19298,30.03509 16.63158,0 29.12281,-13.12281 29.12281,-30.03509 0,-16.91228 -13.05263,-29.96491 -29.12281,-29.96491 -15.92982,0 -29.19298,13.05263 -29.19298,29.96491 z m 14.24561,0 c 0,-8.63157 4.77193,-17.26315 14.94737,-17.26315 10.24561,0 14.87719,8.63158 14.87719,17.26315 0,8.63158 -4.35087,17.26316 -14.87719,17.26316 -10.80702,0 -14.94737,-8.63158 -14.94737,-17.26316 z"/>
		<path d="m 597.341,332.10526 0,57.89474 13.19298,0 0,-21.47368 7.92982,0 c 11.29825,0 19.78948,-6.66667 19.78948,-18.5965 0,-11.99999 -8.49123,-17.82456 -19.78948,-17.82456 l -21.1228,0 z M 610.53398,358 l 0,-15.36842 3.7193,0 c 5.19298,0 10.10526,1.75439 10.10526,7.7193 0,5.89473 -4.91228,7.64912 -10.10526,7.64912 l -3.7193,0 z"/>
		<path d="m 662.27193,366.77193 18.66666,0 0,23.22807 13.19298,0 0,-57.89474 -13.19298,0 0,23.08772 -18.66666,0 0,-23.08772 -13.19299,0 0,57.89474 13.19299,0 0,-23.22807 z"/>
		<path d="m 740.6557,332.10526 -33.12281,0 0,57.89474 33.12281,0 0,-11.57895 -19.92983,0 0,-11.64912 19.08772,0 0,-11.57895 -19.08772,0 0,-11.50877 19.92983,0 0,-11.57895 z"/>
		<path d="m 753.24014,332.10526 0,57.89474 13.19298,0 0,-22.87719 17.68421,22.87719 16.77193,0 -19.92983,-23.92982 c 7.08772,-2.24562 11.85965,-8.07018 11.85965,-16.77193 0,-11.36842 -8.14035,-17.19299 -18.87719,-17.19299 l -20.70175,0 z m 13.19298,25.68421 0,-15.15789 1.54386,0 c 4.98245,0 10.94737,0.35088 10.94737,7.57895 0,7.22807 -5.96492,7.57894 -10.94737,7.57894 l -1.54386,0 z"/>
		<path d="m 880.5899,390 13.19298,0 -5.19298,-57.89474 -14.03509,0 -12.84211,33.40351 -12.8421,-33.40351 -14.03509,0 -5.19298,57.89474 13.19298,0 2.73684,-34.31579 0.35088,0 11.85965,33.96491 7.85965,0 11.85965,-33.96491 0.35088,0 L 880.5899,390 Z"/>
		<path d="m 901.47147,361.01754 c 0,16.91228 12.07017,30.03509 29.19298,30.03509 16.63158,0 29.1228,-13.12281 29.1228,-30.03509 0,-16.91228 -13.05263,-29.96491 -29.1228,-29.96491 -15.92983,0 -29.19298,13.05263 -29.19298,29.96491 z m 14.24561,0 c 0,-8.63157 4.77193,-17.26315 14.94737,-17.26315 10.24561,0 14.87719,8.63158 14.87719,17.26315 0,8.63158 -4.35088,17.26316 -14.87719,17.26316 -10.80702,0 -14.94737,-8.63158 -14.94737,-17.26316 z"/>
		<path d="m 970.60854,332.10526 0,57.89474 13.19299,0 0,-22.87719 17.68417,22.87719 16.772,0 -19.92986,-23.92982 c 7.08776,-2.24562 11.85966,-8.07018 11.85966,-16.77193 0,-11.36842 -8.1404,-17.19299 -18.8772,-17.19299 l -20.70176,0 z m 13.19299,25.68421 0,-15.15789 1.54386,0 c 4.98245,0 10.94737,0.35088 10.94737,7.57895 0,7.22807 -5.96492,7.57894 -10.94737,7.57894 l -1.54386,0 z"/>
		<path d="m 1039.103,332.10526 -13.1929,0 0,57.89474 33.1228,0 0,-11.57895 -19.9299,0 0,-46.31579 z"/>
		<path d="m 1103.6436,332.10526 -33.1228,0 0,57.89474 33.1228,0 0,-11.57895 -19.9298,0 0,-11.64912 19.0877,0 0,-11.57895 -19.0877,0 0,-11.50877 19.9298,0 0,-11.57895 z"/>
		<path d="m 1109.9123,332.10526 21.3333,31.92983 0,25.96491 13.193,0 0,-25.96491 21.3333,-31.92983 -15.8596,0 -12.0702,18.52632 -12.0702,-18.52632 -15.8596,0 z"/>
	</g>
</svg>

<?xml version="1.0" encoding="utf-8"?>
<svg xmlns="http://www.w3.org/2000/svg" xmlns:svg="http://www.w3.org/2000/svg" version="1.1" viewBox="0 0 1400 440">
	<title>The titlepage for the Standard Ebooks edition of Parnassus on Wheels, by Christopher Morley</title>
	<g aria-label="PARNASSUS">
		<path d="M 385.6323,52.807016 V 130 h 17.59065 v -28.63158 h 10.5731 c 15.06433,0 26.38596,-8.888888 26.38596,-24.795322 0,-16 -11.32163,-23.766082 -26.38596,-23.766082 z m 17.59065,34.526317 V 66.842104 h 4.95906 c 6.92398,0 13.47369,2.339181 13.47369,10.292398 0,7.859649 -6.54971,10.198831 -13.47369,10.198831 z"/>
		<path d="M 486.12354,52.807016 H 469.84283 L 438.68494,130 h 18.90058 l 5.70761,-15.4386 h 29.38011 L 498.38085,130 h 18.90058 z m 0.5614,46.31579 h -17.40351 l 8.60819,-22.45614 h 0.18713 z"/>
		<path d="M 525.20103,52.807016 V 130 h 17.59064 V 99.497075 L 566.37062,130 H 588.7332 L 562.1601,98.093567 c 9.45029,-2.994152 15.81286,-10.760234 15.81286,-22.362574 0,-15.157895 -10.8538,-22.923977 -25.16959,-22.923977 z m 17.59064,34.245615 V 66.842104 h 2.05848 c 6.64328,0 14.59649,0.467836 14.59649,10.105263 0,9.637428 -7.95321,10.105264 -14.59649,10.105264 z"/>
		<path d="m 614.86038,82.093566 h 0.18714 L 645.73758,130 h 17.59064 V 52.807016 h -17.59064 v 47.906434 h -0.18714 L 614.86038,52.807016 H 597.26974 V 130 h 17.59064 z"/>
		<path d="m 718.77705,52.807016 h -16.2807 L 671.33845,130 h 18.90059 l 5.7076,-15.4386 h 29.38011 L 731.03436,130 h 18.90058 z m 0.5614,46.31579 h -17.40351 l 8.60819,-22.45614 h 0.18713 z"/>
		<path d="m 784.47149,51.403507 c -12.44444,0 -25.16959,9.169591 -25.16959,23.578948 0,8.046784 5.4269,15.251462 14.69006,19.836258 9.16959,4.584795 17.40351,7.111107 17.40351,12.725147 0,7.20468 -7.29824,7.57895 -11.1345,7.57895 -8.60819,0 -18.90059,-8.70176 -18.90059,-8.70176 l -8.79532,14.78363 c 0,0 10.94737,10.19883 29.00585,10.19883 15.06433,0 29.09942,-6.45614 29.09942,-24.88889 0,-10.105264 -9.4503,-17.40351 -18.05848,-21.052632 -8.79533,-3.742691 -16.09357,-6.83041 -16.09357,-11.134504 0,-4.210526 3.18128,-6.923976 9.16959,-6.923976 7.95322,0 15.62573,5.333333 15.62573,5.333333 l 7.11111,-14.035088 c 0,0 -9.91813,-7.298246 -23.95322,-7.298246 z"/>
		<path d="m 850.50952,51.403507 c -12.44445,0 -25.16959,9.169591 -25.16959,23.578948 0,8.046784 5.4269,15.251462 14.69006,19.836258 9.16959,4.584795 17.40351,7.111107 17.40351,12.725147 0,7.20468 -7.29825,7.57895 -11.13451,7.57895 -8.60818,0 -18.90058,-8.70176 -18.90058,-8.70176 l -8.79532,14.78363 c 0,0 10.94736,10.19883 29.00584,10.19883 15.06433,0 29.09942,-6.45614 29.09942,-24.88889 0,-10.105264 -9.45029,-17.40351 -18.05848,-21.052632 -8.79532,-3.742691 -16.09357,-6.83041 -16.09357,-11.134504 0,-4.210526 3.18129,-6.923976 9.16959,-6.923976 7.95322,0 15.62574,5.333333 15.62574,5.333333 l 7.11111,-14.035088 c 0,0 -9.91813,-7.298246 -23.95322,-7.298246 z"/>
		<path d="m 949.25222,52.807016 h -17.59064 v 44.63158 c 0,12.912284 -3.92983,16.654974 -12.53801,16.654974 -8.60819,0 -12.53802,-3.74269 -12.53802,-16.654974 v -44.63158 h -17.59064 v 49.777774 c 0,19.08772 10.47953,28.81872 30.12866,28.81872 19.64912,0 30.12865,-9.731 30.12865,-28.81872 z"/>
		<path d="m 991.17471,51.403507 c -12.44444,0 -25.16959,9.169591 -25.16959,23.578948 0,8.046784 5.4269,15.251462 14.69006,19.836258 9.16959,4.584795 17.40351,7.111107 17.40351,12.725147 0,7.20468 -7.29825,7.57895 -11.13451,7.57895 -8.60818,0 -18.90058,-8.70176 -18.90058,-8.70176 l -8.79532,14.78363 c 0,0 10.94737,10.19883 29.00585,10.19883 15.06437,0 29.09937,-6.45614 29.09937,-24.88889 0,-10.105264 -9.4503,-17.40351 -18.05844,-21.052632 -8.79532,-3.742691 -16.09357,-6.83041 -16.09357,-11.134504 0,-4.210526 3.18129,-6.923976 9.1696,-6.923976 7.95321,0 15.62571,5.333333 15.62571,5.333333 l 7.1111,-14.035088 c 0,0 -9.9181,-7.298246 -23.95319,-7.298246 z"/>
	</g>
	<g aria-label="ON WHEELS">
		<path d="m 393.50073,191.35672 c 0,22.54971 16.09356,40.04679 38.92397,40.04679 22.17544,0 38.83041,-17.49708 38.83041,-40.04679 0,-22.5497 -17.40351,-39.95321 -38.83041,-39.95321 -21.23976,0 -38.92397,17.40351 -38.92397,39.95321 z m 18.99415,0 c 0,-11.50877 6.36257,-23.01754 19.92982,-23.01754 13.66082,0 19.83626,11.50877 19.83626,23.01754 0,11.50878 -5.80117,23.01755 -19.83626,23.01755 -14.40935,0 -19.92982,-11.50877 -19.92982,-23.01755 z"/>
		<path d="m 501.60745,182.09357 h 0.18713 L 532.48464,230 h 17.59065 v -77.19298 h -17.59065 v 47.90643 h -0.18713 L 501.60745,152.80702 H 484.01681 V 230 h 17.59064 z"/>
		<path d="m 648.09137,230 h 19.46199 l 21.98831,-77.19298 h -19.46199 l -13.19298,52.95906 h -0.46784 l -14.03509,-52.95906 h -13.28655 l -14.03509,52.95906 H 614.5943 L 601.40132,152.80702 H 581.84576 L 603.83406,230 h 19.55556 l 12.35088,-43.32164 z"/>
		<path d="M 716.35161,199.02924 H 741.2405 V 230 h 17.59064 V 152.80702 H 741.2405 v 30.78362 H 716.35161 V 152.80702 H 698.76096 V 230 h 17.59065 z"/>
		<path d="M 819.19665,152.80702 H 775.0329 V 230 h 44.16375 v -15.4386 h -26.5731 v -15.53216 h 25.45029 v -15.4386 h -25.45029 v -15.34503 h 26.5731 z"/>
		<path d="M 878.47295,152.80702 H 834.30921 V 230 h 44.16374 v -15.4386 h -26.5731 v -15.53216 h 25.4503 v -15.4386 h -25.4503 v -15.34503 h 26.5731 z"/>
		<path d="M 911.17616,152.80702 H 893.58552 V 230 h 44.16374 v -15.4386 h -26.5731 z"/>
		<path d="m 979.84429,151.40351 c -12.44444,0 -25.16959,9.16959 -25.16959,23.57895 0,8.04678 5.4269,15.25146 14.69006,19.83625 9.16959,4.5848 17.40351,7.11111 17.40351,12.72515 0,7.20468 -7.29825,7.57895 -11.1345,7.57895 -8.60819,0 -18.90059,-8.70176 -18.90059,-8.70176 l -8.79532,14.78363 c 0,0 10.94737,10.19883 29.00585,10.19883 15.06433,0 29.09939,-6.45614 29.09939,-24.88889 0,-10.10526 -9.45027,-17.40351 -18.05846,-21.05263 -8.79532,-3.74269 -16.09356,-6.83041 -16.09356,-11.13451 0,-4.21052 3.18128,-6.92397 9.16959,-6.92397 7.95321,0 15.62573,5.33333 15.62573,5.33333 l 7.1111,-14.03509 c 0,0 -9.91812,-7.29824 -23.95321,-7.29824 z"/>
	</g>
	<g aria-label="CHRISTOPHER MORLEY">
		<path d="m 271.32785,378.07018 c -13.26315,0 -19.08771,-9.26316 -19.08771,-17.05264 0,-7.71929 5.82456,-16.98245 19.08771,-16.98245 6.73685,0 11.36843,3.57895 11.36843,3.57895 l 5.61403,-11.22807 c 0,0 -6.45614,-5.33334 -19.01754,-5.33334 -16.42106,0 -31.36842,13.47369 -31.36842,30.10527 0,16.5614 15.01754,29.89473 31.36842,29.89473 12.5614,0 19.01754,-5.33333 19.01754,-5.33333 l -5.61403,-11.22807 c 0,0 -4.63158,3.57895 -11.36843,3.57895 z"/>
		<path d="m 311.61952,366.77193 h 18.66667 V 390 h 13.19298 v -57.89474 h -13.19298 v 23.08772 H 311.61952 V 332.10526 H 298.42654 V 390 h 13.19298 z"/>
		<path d="M 356.88049,332.10526 V 390 h 13.19298 V 367.12281 L 387.75768,390 h 16.77193 l -19.92983,-23.92982 c 7.08772,-2.24562 11.85965,-8.07018 11.85965,-16.77193 0,-11.36842 -8.14035,-17.19299 -18.87719,-17.19299 z m 13.19298,25.68421 v -15.15789 h 1.54386 c 4.98246,0 10.94737,0.35088 10.94737,7.57895 0,7.22807 -5.96491,7.57894 -10.94737,7.57894 z"/>
		<path d="M 425.375,332.10526 H 412.18202 V 390 H 425.375 Z"/>
		<path d="m 458.80043,331.05263 c -9.33333,0 -18.87719,6.8772 -18.87719,17.68421 0,6.03509 4.07017,11.4386 11.01754,14.8772 6.87719,3.43859 13.05263,5.33333 13.05263,9.54385 0,5.40351 -5.47368,5.68422 -8.35088,5.68422 -6.45614,0 -14.17543,-6.52632 -14.17543,-6.52632 l -6.5965,11.08772 c 0,0 8.21053,7.64912 21.75439,7.64912 11.29825,0 21.82456,-4.8421 21.82456,-18.66666 0,-7.57895 -7.08772,-13.05264 -13.54386,-15.78948 -6.59649,-2.80702 -12.07017,-5.12281 -12.07017,-8.35088 0,-3.15789 2.38596,-5.19298 6.87719,-5.19298 5.96491,0 11.7193,4 11.7193,4 l 5.33333,-10.52631 c 0,0 -7.4386,-5.47369 -17.96491,-5.47369 z"/>
		<path d="m 482.54057,343.68421 h 13.75438 V 390 h 13.19299 v -46.31579 h 13.75438 v -11.57895 h -40.70175 z"/>
		<path d="m 528.20395,361.01754 c 0,16.91228 12.07017,30.03509 29.19298,30.03509 16.63158,0 29.12281,-13.12281 29.12281,-30.03509 0,-16.91228 -13.05263,-29.96491 -29.12281,-29.96491 -15.92982,0 -29.19298,13.05263 -29.19298,29.96491 z m 14.24561,0 c 0,-8.63157 4.77193,-17.26315 14.94737,-17.26315 10.24561,0 14.87719,8.63158 14.87719,17.26315 0,8.63158 -4.35087,17.26316 -14.87719,17.26316 -10.80702,0 -14.94737,-8.63158 -14.94737,-17.26316 z"/>
		<path d="M 597.341,332.10526 V 390 h 13.19298 v -21.47368 h 7.92982 c 11.29825,0 19.78948,-6.66667 19.78948,-18.5965 0,-11.99999 -8.49123,-17.82456 -19.78948,-17.82456 z M 610.53398,358 v -15.36842 h 3.7193 c 5.19298,0 10.10526,1.75439 10.10526,7.7193 0,5.89473 -4.91228,7.64912 -10.10526,7.64912 z"/>
		<path d="m 662.27193,366.77193 h 18.66666 V 390 h 13.19298 v -57.89474 h -13.19298 v 23.08772 H 662.27193 V 332.10526 H 649.07894 V 390 h 13.19299 z"/>
		<path d="M 740.6557,332.10526 H 707.53289 V 390 h 33.12281 v -11.57895 h -19.92983 v -11.64912 h 19.08772 v -11.57895 h -19.08772 v -11.50877 h 19.92983 z"/>
		<path d="M 753.24014,332.10526 V 390 h 13.19298 V 367.12281 L 784.11733,390 h 16.77193 l -19.92983,-23.92982 c 7.08772,-2.24562 11.85965,-8.07018 11.85965,-16.77193 0,-11.36842 -8.14035,-17.19299 -18.87719,-17.19299 z m 13.19298,25.68421 v -15.15789 h 1.54386 c 4.98245,0 10.94737,0.35088 10.94737,7.57895 0,7.22807 -5.96492,7.57894 -10.94737,7.57894 z"/>
		<path d="m 880.5899,390 h 13.19298 L 888.5899,332.10526 H 874.55481 L 861.7127,365.50877 848.8706,332.10526 H 834.83551 L 829.64253,390 h 13.19298 l 2.73684,-34.31579 h 0.35088 l 11.85965,33.96491 h 7.85965 l 11.85965,-33.96491 h 0.35088 z"/>
		<path d="m 901.47147,361.01754 c 0,16.91228 12.07017,30.03509 29.19298,30.03509 16.63158,0 29.1228,-13.12281 29.1228,-30.03509 0,-16.91228 -13.05263,-29.96491 -29.1228,-29.96491 -15.92983,0 -29.19298,13.05263 -29.19298,29.96491 z m 14.24561,0 c 0,-8.63157 4.77193,-17.26315 14.94737,-17.26315 10.24561,0 14.87719,8.63158 14.87719,17.26315 0,8.63158 -4.35088,17.26316 -14.87719,17.26316 -10.80702,0 -14.94737,-8.63158 -14.94737,-17.26316 z"/>
		<path d="M 970.60854,332.10526 V 390 h 13.19299 V 367.12281 L 1001.4857,390 h 16.772 l -19.92986,-23.92982 c 7.08776,-2.24562 11.85966,-8.07018 11.85966,-16.77193 0,-11.36842 -8.1404,-17.19299 -18.8772,-17.19299 z m 13.19299,25.68421 v -15.15789 h 1.54386 c 4.98245,0 10.94737,0.35088 10.94737,7.57895 0,7.22807 -5.96492,7.57894 -10.94737,7.57894 z"/>
		<path d="m 1039.103,332.10526 h -13.1929 V 390 h 33.1228 v -11.57895 h -19.9299 z"/>
		<path d="m 1103.6436,332.10526 h -33.1228 V 390 h 33.1228 v -11.57895 h -19.9298 v -11.64912 h 19.0877 v -11.57895 h -19.0877 v -11.50877 h 19.9298 z"/>
		<path d="m 1109.9123,332.10526 21.3333,31.92983 V 390 h 13.193 v -25.96491 l 21.3333,-31.92983 h -15.8596 l -12.0702,18.52632 -12.0702,-18.52632 z"/>
	</g>
</svg>
